X:360
T: Da lian cheng
N: C1310
O: China,Neimeng
S: MM, ZHONGGUO MINGE XUAN S.195]
N: Pinyin-Text der ersten Strophe vorhanden!
R: Xiaodiao. Bainian]
M: 2/4
L: 1/16
K: C
E3EE3g | e2d2c4 | e4d2c2 | E8 |
E3EE3g | e3ge2d2 | e4d2c2 | E8 |
c2A2c4 | E2G2E4 |
c2c2c2c2 | E2G2E4 |
c3dg2e2 | d8 |
E4g4 | e2d2c4 | d2ddc2A2 | G2A2c2E2 | G8

@@@ Tune index: 6361
